suite-common/icons/assets/icons/settings.svg

<svg xmlns="http://www.w3.org/2000/svg" xml:space="preserve" fill="none" viewBox="0 0 24 24">
  <path fill="#000" fill-rule="evenodd" d="M8.74 2.006c-1.133.414-1.931.813-2.7 1.349-.627.437-1.192.936-1.269 1.121-.048.114-.056.382-.046 1.501l.012 1.363-.199.351-.198.351-1.16.642c-.638.354-1.193.673-1.234.709-.171.154-.26.482-.368 1.357-.153 1.238-.009 3.2.271 3.698.102.181.14.205 1.513.966l.982.544.195.351.196.351.002 1.42.003 1.42.096.135c.273.382 1.581 1.309 2.45 1.735 1.019.5 1.637.705 1.908.632.086-.023.663-.345 1.282-.716l1.126-.673.409.005.409.005 1.105.663c.607.366 1.172.686 1.254.714a.8.8 0 0 0 .306.024c.391-.063 1.519-.553 2.221-.966.84-.494 1.812-1.269 1.922-1.53.049-.117.057-.375.048-1.513l-.011-1.372.197-.343.198-.342 1.06-.586c1.229-.679 1.379-.774 1.46-.932.162-.313.305-1.446.305-2.419 0-1.05-.147-2.135-.334-2.469-.102-.18-.138-.204-1.511-.966l-.98-.543-.197-.349-.196-.348.009-1.389c.011-1.568.023-1.497-.303-1.799-.936-.871-2.399-1.717-3.637-2.103-.306-.095-.369-.103-.517-.063-.092.025-.668.345-1.28.712l-1.111.668-.404.004-.404.004-1.164-.692c-1.052-.626-1.186-.694-1.38-.71a1 1 0 0 0-.336.028M12 4.86h.86l1.093-.657 1.093-.658.227.077c.608.205 1.684.816 2.267 1.288l.24.194V7.82l.203.32c.112.176.272.451.356.611s.203.334.264.386c.062.051.577.351 1.145.664.567.314 1.054.591 1.08.615.075.068.172.977.172 1.604 0 .508-.084 1.45-.138 1.536-.011.019-.516.309-1.122.644-.671.372-1.141.657-1.203.731a2.3 2.3 0 0 0-.224.362 8 8 0 0 1-.327.564l-.206.323.012 1.345.013 1.345-.173.149c-.489.422-1.51 1.022-2.248 1.322l-.316.128-1.104-.664-1.104-.665h-1.72l-1.093.657-1.093.658-.227-.077c-.596-.201-1.676-.816-2.261-1.288l-.275-.22.029-1.265c.033-1.413.042-1.351-.254-1.822a9 9 0 0 1-.302-.528 2 2 0 0 0-.242-.373c-.051-.048-.585-.362-1.187-.698l-1.095-.611-.05-.297c-.087-.517-.106-1.75-.036-2.307a5 5 0 0 1 .085-.528c.013-.02.5-.301 1.083-.623s1.111-.628 1.174-.68.181-.227.265-.387.244-.435.356-.611l.203-.32-.012-1.335c-.011-1.238-.007-1.34.06-1.414.125-.139.857-.653 1.259-.884.33-.189 1.16-.58 1.352-.636.032-.009.554.281 1.16.646l1.101.663zm-.845 1.963c-1.63.255-3.106 1.353-3.866 2.877-.581 1.166-.688 2.627-.284 3.889A5.16 5.16 0 0 0 8.3 15.7c2.028 2.028 5.259 2.055 7.355.063.129-.123.363-.394.521-.603a5.226 5.226 0 0 0 0-6.32 5.27 5.27 0 0 0-5.021-2.017m1.705 1.534a3.63 3.63 0 0 1 1.782 1.001c.73.73 1.092 1.606 1.092 2.642s-.362 1.912-1.092 2.642-1.606 1.092-2.642 1.092-1.912-.362-2.642-1.092S8.266 13.036 8.266 12s.362-1.912 1.092-2.642c.611-.611 1.322-.955 2.262-1.094.237-.035.926.017 1.24.093"/>
</svg>

<svg xmlns="http://www.w3.org/2000/svg" xml:space="preserve" fill="none" viewBox="0 0 24 24"><path d="M8.740 2.006 C 7.607 2.420,6.809 2.819,6.040 3.355 C 5.413 3.792,4.848 4.291,4.771 4.476 C 4.723 4.590,4.715 4.858,4.725 5.977 L 4.737 7.340 4.538 7.691 L 4.340 8.042 3.180 8.684 C 2.542 9.038,1.987 9.357,1.946 9.393 C 1.775 9.547,1.686 9.875,1.578 10.750 C 1.425 11.988,1.569 13.950,1.849 14.448 C 1.951 14.629,1.989 14.653,3.362 15.414 L 4.344 15.958 4.539 16.309 L 4.735 16.660 4.737 18.080 L 4.740 19.500 4.836 19.635 C 5.109 20.017,6.417 20.944,7.286 21.370 C 8.305 21.870,8.923 22.075,9.194 22.002 C 9.280 21.979,9.857 21.657,10.476 21.286 L 11.602 20.613 12.011 20.618 L 12.420 20.623 13.525 21.286 C 14.132 21.652,14.697 21.972,14.779 22.000 C 14.863 22.027,14.996 22.038,15.085 22.024 C 15.476 21.961,16.604 21.471,17.306 21.058 C 18.146 20.564,19.118 19.789,19.228 19.528 C 19.277 19.411,19.285 19.153,19.276 18.015 L 19.265 16.643 19.462 16.300 L 19.660 15.958 20.720 15.372 C 21.949 14.693,22.099 14.598,22.180 14.440 C 22.342 14.127,22.485 12.994,22.485 12.021 C 22.485 10.971,22.338 9.886,22.151 9.552 C 22.049 9.372,22.013 9.348,20.640 8.586 L 19.660 8.043 19.463 7.694 L 19.267 7.346 19.276 5.957 C 19.287 4.389,19.299 4.460,18.973 4.158 C 18.037 3.287,16.574 2.441,15.336 2.055 C 15.030 1.960,14.967 1.952,14.819 1.992 C 14.727 2.017,14.151 2.337,13.539 2.704 L 12.428 3.372 12.024 3.376 L 11.620 3.380 10.456 2.688 C 9.404 2.062,9.270 1.994,9.076 1.978 C 8.957 1.969,8.806 1.981,8.740 2.006 M12.000 4.860 L 12.860 4.860 13.953 4.203 L 15.046 3.545 15.273 3.622 C 15.881 3.827,16.957 4.438,17.540 4.910 L 17.780 5.104 17.780 6.462 L 17.780 7.820 17.983 8.140 C 18.095 8.316,18.255 8.591,18.339 8.751 C 18.423 8.911,18.542 9.085,18.603 9.137 C 18.665 9.188,19.180 9.488,19.748 9.801 C 20.315 10.115,20.802 10.392,20.828 10.416 C 20.903 10.484,21.000 11.393,21.000 12.020 C 21.000 12.528,20.916 13.470,20.862 13.556 C 20.851 13.575,20.346 13.865,19.740 14.200 C 19.069 14.572,18.599 14.857,18.537 14.931 C 18.481 14.997,18.380 15.160,18.313 15.293 C 18.247 15.425,18.099 15.679,17.986 15.857 L 17.780 16.180 17.792 17.525 L 17.805 18.870 17.632 19.019 C 17.143 19.441,16.122 20.041,15.384 20.341 L 15.068 20.469 13.964 19.805 L 12.860 19.140 12.000 19.140 L 11.140 19.140 10.047 19.797 L 8.954 20.455 8.727 20.378 C 8.131 20.177,7.051 19.562,6.466 19.090 L 6.191 18.870 6.220 17.605 C 6.253 16.192,6.262 16.254,5.966 15.783 C 5.882 15.649,5.746 15.412,5.664 15.255 C 5.582 15.098,5.473 14.930,5.422 14.882 C 5.371 14.834,4.837 14.520,4.235 14.184 L 3.140 13.573 3.090 13.276 C 3.003 12.759,2.984 11.526,3.054 10.969 C 3.088 10.699,3.127 10.462,3.139 10.441 C 3.152 10.421,3.639 10.140,4.222 9.818 C 4.805 9.496,5.333 9.190,5.396 9.138 C 5.458 9.085,5.577 8.911,5.661 8.751 C 5.745 8.591,5.905 8.316,6.017 8.140 L 6.220 7.820 6.208 6.485 C 6.197 5.247,6.201 5.145,6.268 5.071 C 6.393 4.932,7.125 4.418,7.527 4.187 C 7.857 3.998,8.687 3.607,8.879 3.551 C 8.911 3.542,9.433 3.832,10.039 4.197 L 11.140 4.860 12.000 4.860 M11.155 6.823 C 9.525 7.078,8.049 8.176,7.289 9.700 C 6.708 10.866,6.601 12.327,7.005 13.589 C 7.261 14.391,7.690 15.090,8.300 15.700 C 10.328 17.728,13.559 17.755,15.655 15.763 C 15.784 15.640,16.018 15.369,16.176 15.160 C 17.594 13.278,17.594 10.722,16.176 8.840 C 15.014 7.298,13.081 6.522,11.155 6.823 M12.860 8.357 C 13.565 8.529,14.131 8.846,14.642 9.358 C 15.372 10.088,15.734 10.964,15.734 12.000 C 15.734 13.036,15.372 13.912,14.642 14.642 C 13.912 15.372,13.036 15.734,12.000 15.734 C 10.964 15.734,10.088 15.372,9.358 14.642 C 8.628 13.912,8.266 13.036,8.266 12.000 C 8.266 10.964,8.628 10.088,9.358 9.358 C 9.969 8.747,10.680 8.403,11.620 8.264 C 11.857 8.229,12.546 8.281,12.860 8.357 " stroke="none" fill-rule="evenodd" fill="black"></path></svg>
